!!!!SEGMENT: pl-kk--kk-i-10--022-006_anonim--missa-alia-paschalis-agnus-dei.krn
!!!cenid: 16xx:1227
!!!COM: Anonim
!!!COM-rismid: pe30004985
!!!CDT:
!!!CNT:
!!!OPR: Missa alia Paschalis
!!!OTL: Agnus Dei
!!!OMV: 006
!!!PDT:
!!!AGN: Sacred; Mass
!!!SMS-siglum: PL-Kk
!!!SMS-shelfmark: Kk.I.10
!!!SMS-shelfwork: 022-006 M
!!!SMS-variant:
!!!SMS-altvar:
!!!NIFC-rismid: 1001154103
!!!URL-scan: http://repozytorium.nifc.pl/skany/pl-kk-nut--i-10
!!!ONB-nifc: UWAGA: części Mszy: 1. Kyrie, 2. Et in terra, 3. Patrem, 4. Sanctus, 5. Benedictus, 6. Agnus Dei. A (0038-0041), T (0087-0090), B (0136-0139)
!!!AIN: 1 alto 1 empty 1 tenor
!!!key:
**kern	**text	**kern	**text	**kern	**text
*part3	*part3	*part2	*part2	*part1	*part1
*staff3	*staff3	*staff2	*staff2	*staff1	*staff1
*Iempty	*	*Itenor	*	*Ialto	*
*I"[Baſsus]	*	*I"[Tenor]	*	*I"[Alt(us)]	*
*I'B	*	*I'T	*	*I'A	*
*clefF4	*	*clefC4	*	*clefC3	*
*k[b-]	*	*k[b-]	*	*k[b-]	*
*g:	*	*g:	*	*g:	*
*M3/1	*	*M3/1	*	*M3/1	*
=1-	=1-	=1-	=1-	=1-	=1-
0G	A-	0G	A-	0g	A-
1G	-gn(us)	1G	-gn(us)	1d	-gn(us)
=2-	=2-	=2-	=2-	=2-	=2-
!	!	!LO:SIC:v:s=1F#	!	!	!
1D	De-	1F	De-	1.d	De-
!	!	!LO:SIC:v:s=1F#	!	!	!
1D	-i	1F	-i	.	.
.	.	.	.	2e\	-i
!	!	!LO:SIC:v:s=1F#	!	!LO:TX:t=P:problem=♯ above	!
1D	q(ui)	1F	qvi	2f#X\	qvi
.	.	.	.	2d\	.
=3-	=3-	=3-	=3-	=3-	=3-
0G	tol-	0G	tol-	0d	tol-
!	!	!LO:TX:a:t=vi	!	!	!
!	!	!LO:TX:t=P:problem=takty 4-14 zapisane u dołu strony z odnośnikiem vi-de	!	!	!
1G	-liſ	1G	-lis	1d	-liſ
=4-	=4-	=4-	=4-	=4-	=4-
!	!	!LO:TX:a:t=de	!	!	!
0F	pec-	0A	[pec-	1f	pec-
.	.	.	.	1.f	-ca-
1D	-ca-	1B-	-ca-	.	.
.	.	.	.	2f\	-ta
=5-	=5-	=5-	=5-	=5-	=5-
1E-X	-ta	1B-	-ta	0g	Mun-
*	*	*lig	*	*	*
0F	Mun-	1B-	mun-	.	.
.	.	1A	.	1f	.
*	*	*Xlig	*	*	*
=6-	=6-	=6-	=6-	=6-	=6-
0.BB-	-di	0.B-	-di	0.f	-di
=7-	=7-	=7-	=7-	=7-	=7-
1.B-	Mi-	1.B-	Mi-	1.f	Mi-
2B-\	-ſe-	2B-\	-ſe-	2f\	-ſe-
2F\	-re-	2A/	-re-	2f\	-re-
2F\	-re	2A/	-re	2f\	-re
=8-	=8-	=8-	=8-	=8-	=8-
0G	no-	0G	no-	0d	no-
!	!	!LO:SIC:v:s=1F#:t=?	!	!	!
1D	-biſ	1F	-biſ	1d	-biſ
=9-	=9-	=9-	=9-	=9-	=9-
1.E-X	mi-	1.G	Mi-	1.B-	Mi-
2E-\	-ſe-	2G/	-ſe-	2B-/	-ſe-
2BB-/	-re-	2F/	-re-	2d\	-re-
2BB-/	-re	2F/	-re	2d\	-re
=10-	=10-	=10-	=10-	=10-	=10-
*	*ij	*	*	*	*ij
1.C	Mi-	1.c	Mi-	1.e	Mi-
2C/	-ſe-	2c\	-ſe-	2e\	-ſe-
1GG/	-re-	1B-	-re-	1g\	-re-
.	.	.	.	.	.
=11-	=11-	=11-	=11-	=11-	=11-
1D	-re	0A	-re	0g	-re
*	*Xij	*	*	*	*Xij
0D	no-	.	.	.	.
!	!	!	!	!LO:TX:t=P:problem=♯ above	!
.	.	1A	no-	1f#X	no-
=12-	=12-	=12-	=12-	=12-	=12-
1GG	-biſ	1B-	-bis	0.g	-bis
1GG	a-	1G	A-	.	.
1GG	-gn(us)	1G	-gn(us)	.	.
=13-	=13-	=13-	=13-	=13-	=13-
1D	De-	1F	De-	1%3r	.
1D	-i	1F	-i	.	.
1D	q(ui)	1F	qui	.	.
=14-	=14-	=14-	=14-	=14-	=14-
1.GG	tol-	0G	tol-	1%3r	.
2GG/	-lis	.	.	.	.
1G	pec-	1G	-lis]	.	.
=15-	=15-	=15-	=15-	=15-	=15-
1.F	.	1A	pec-	1%3r	.
.	.	1.A	-ca-	.	.
2F\	-ca-	.	.	.	.
1F	-ta	.	.	.	.
.	.	2A\	-ta	.	.
=16-	=16-	=16-	=16-	=16-	=16-
0.BB-	Mun-	0B-	Mun-	1%3r	.
.	.	1B-	-di	.	.
=17-	=17-	=17-	=17-	=17-	=17-
0.BB-	-di	1.d	Mi-	1%3r	.
.	.	2d\	-ſe-	.	.
.	.	2d\	-re-	.	.
.	.	2d\	-re	.	.
=18-	=18-	=18-	=18-	=18-	=18-
*	*	*	*ij	*	*
1.BB-	Mi-	1.B-	Mi-	1%3r	.
2BB-/	-ſe-	2B-\	-ſe-	.	.
1FF	-re-	1A	-re-	.	.
=19-	=19-	=19-	=19-	=19-	=19-
1GG	-re	1G	-re	1%3r	.
*	*	*	*Xij	*	*
*	*	*lig	*	*	*
0D	no-	1G	no-	.	.
!	!	!LO:SIC:v:s=1F#	!	!	!
.	.	1F	.	.	.
*	*	*Xlig	*	*	*
=20-	=20-	=20-	=20-	=20-	=20-
1GG	-bis	1G	-bis	0g	A-
1G	a-	1d	A-	.	.
1G	-gn(us)	1d,	-gn(us)	1g	-gn(us)
=21-	=21-	=21-	=21-	=21-	=21-
1D	De-	1d	De-	1f	De-
1D	-i	1d	-i	2f\	-i
.	.	.	.	2e\	.
!LO:TX:t=P:problem=zapis partii kończy się w tym miejscu	!	!	!	!	!
1G	q(ui)	1d	qvi	2f\	qvi
.	.	.	.	2g\	.
=22-	=22-	=22-	=22-	=22-	=22-
1%3ryy	.	1A	tol-	1a	tol-
.	.	1A	-lis	1a	-liſ
.	.	1B-	pec-	1f	pec-
=23-	=23-	=23-	=23-	=23-	=23-
1%3ryy	.	1.B-	-ca-	1.g	-ca-
.	.	2B-\	-ta	2g\	-ta
.	.	1A	mun-	1f	mun-
=24-	=24-	=24-	=24-	=24-	=24-
1%3ryy	.	0.B-	-di	0.f	-di
=25-	=25-	=25-	=25-	=25-	=25-
1%3ryy	.	1.d	Do-	1.f	do-
.	.	2d\	-na	2f\	-na
.	.	1d	no-	1f	no-
=26-	=26-	=26-	=26-	=26-	=26-
1%3ryy	.	1c	-bis	1f	-biſ
.	.	0B-	pa-	0d	pa-
=27-	=27-	=27-	=27-	=27-	=27-
1%3ryy	.	1A	-cem	1f	-ce(m)
.	.	1A	do-	1.f	do-
.	.	1A	-na	.	.
.	.	.	.	2f\	-na
=28-	=28-	=28-	=28-	=28-	=28-
*	*	*	*	*	*ij
!	!	!	!	!LO:TX:a:t=P:problem=♭ above	!
1%3ryy	.	1.G	do-	1.e-X	do-
.	.	2G/	-na	2e-\	-na
*	*	*	*	*	*Xij
.	.	1G	no-	1e-	no-
=29-	=29-	=29-	=29-	=29-	=29-
1%3ryy	.	1B-	-bis	1d	-bis
.	.	0G	pa-	0c	pa-
=30-	=30-	=30-	=30-	=30-	=30-
1%3ryy	.	1B-	-ce(m)	1d	-cem
.	.	1.B-	do-	1.d	Do-
.	.	2B-\	-na	2d/	-na
=31-	=31-	=31-	=31-	=31-	=31-
1%3ryy	.	1.A	do-	1.c	Do-
.	.	2A/	-na	2c/	-na
.	.	1A	no-	1c	no-
=32-	=32-	=32-	=32-	=32-	=32-
1%3ryy	.	1A	-biſ	1f	biſ
.	.	0G	pa-	0d	pa-
=33-	=33-	=33-	=33-	=33-	=33-
1%3ryy	.	1G	-ce(m)	1e	-ce(m)
*	*	*	*ij	*	*
.	.	1.G	do-	1.e	do-
.	.	2G/	-na	2e\	-na
=34-	=34-	=34-	=34-	=34-	=34-
*	*	*	*	*	*ij
1%3ryy	.	1.B-	do-	1.d	do-
.	.	2B-\	-na	2d\	-na
*	*	*	*	*	*Xij
.	.	1B-	no-	1d	no-
=35-	=35-	=35-	=35-	=35-	=35-
1%3ryy	.	1G	-biſ	1d	-biſ
*	*	*lig	*	*	*
.	.	1G	pa-	0d	pa-
!	!	!LO:TX:a:t=P:problem=# above	!	!	!
.	.	1F#X	.	.	.
*	*	*Xlig	*	*	*
=36-	=36-	=36-	=36-	=36-	=36-
1%3ryy	.	1G	-cem	1d	-ce(m)
*	*	*	*Xij	*	*
.	.	1G	do-	1d	do-
.	.	1G	-na	1d	-na
=37-	=37-	=37-	=37-	=37-	=37-
1%3ryy	.	1.G	do-	1.e-X	do-
.	.	2G/	-na	2e-\	-na
.	.	2G/	no-	2d\	no-
.	.	2G/	-biſ	2d\	-biſ
=38-	=38-	=38-	=38-	=38-	=38-
1%3ryy	.	0.G	pa-	0.e-X	pa-
=39-	=39-	=39-	=39-	=39-	=39-
1%3ryy	.	0.G;;	-ce(m)	0.d;;	-ce(m)
==	==	==	==	==	==
*-	*-	*-	*-	*-	*-
!!!system-decoration: [(s1,s2,s3)]
!!!ENC: Kamil Watkowski
!!!END: 2021-07-08
